app/assets/images/icons/active/cross.svg

<svg width="32" height="232" viewBox="0 0 32 232" xmlns="http://www.w3.org/2000/svg"><title>cross</title><g fill="none"><path d="M19.142 176.942l8.744-8.743-3.199-3.2-8.746 8.744-8.741-8.744-3.201 3.201 8.743 8.742-.056.058.056.057-8.743 8.743 3.201 3.201 8.743-8.743 8.744 8.743 3.199-3.201-8.744-8.743.059-.057-.059-.058z" fill="#F95D5B"/><path d="M19.142 215.942l8.744-8.743-3.199-3.2-8.746 8.744-8.741-8.744-3.201 3.201 8.743 8.742-.056.058.056.057-8.743 8.743 3.201 3.201 8.743-8.743 8.744 8.743 3.199-3.201-8.744-8.743.059-.057-.059-.058z" fill="#98A8B2"/><path d="M19.142 136.942l8.744-8.743-3.199-3.2-8.746 8.744-8.741-8.744-3.201 3.201 8.743 8.742-.056.058.056.057-8.743 8.743 3.201 3.201 8.743-8.743 8.744 8.743 3.199-3.201-8.744-8.743.059-.057-.059-.058z" fill="#206FAC"/><path d="M19.142 96.942l8.744-8.743-3.199-3.2-8.746 8.744-8.741-8.744-3.201 3.201 8.743 8.742-.056.058.056.057-8.743 8.743 3.201 3.201 8.743-8.743 8.744 8.743 3.199-3.201-8.744-8.743.059-.057-.059-.058z" fill="#fff"/><path d="M19.142 56.942l8.744-8.743-3.199-3.2-8.746 8.744-8.741-8.744-3.201 3.201 8.743 8.742-.056.058.056.057-8.743 8.743 3.201 3.201 8.743-8.743 8.744 8.743 3.199-3.201-8.744-8.743.059-.057-.059-.058z" fill="#67737B"/><path d="M19.142 16.942l8.744-8.743-3.199-3.2-8.746 8.744-8.741-8.744-3.201 3.201 8.743 8.742-.056.058.056.057-8.743 8.743 3.201 3.201 8.743-8.743 8.744 8.743 3.199-3.201-8.744-8.743.059-.057-.059-.058z" fill="#3A434E"/></g></svg>

<svg width="32" height="232" viewBox="0 0 32 232" xmlns="http://www.w3.org/2000/svg"><title>cross</title><g fill="none"><path d="M19.142 176.942l8.744-8.743-3.2-3.2-8.745 8.742L7.2 165 4 168.2l8.742 8.742-.056.058.056.057L4 185.8l3.2 3.2 8.743-8.742L24.687 189l3.2-3.2-8.745-8.743.06-.057-.06-.058z" fill="#F95D5B"/><path d="M19.142 215.942l8.744-8.743-3.2-3.2-8.745 8.742L7.2 204 4 207.2l8.742 8.742-.056.058.056.057L4 224.8l3.2 3.2 8.743-8.742L24.687 228l3.2-3.2-8.745-8.743.06-.057-.06-.058z" fill="#98A8B2"/><path d="M19.142 136.942l8.744-8.743-3.2-3.2-8.745 8.742L7.2 125 4 128.2l8.742 8.742-.056.058.056.057L4 145.8l3.2 3.2 8.743-8.742L24.687 149l3.2-3.2-8.745-8.743.06-.057-.06-.058z" fill="#206FAC"/><path d="M19.142 96.942l8.744-8.743-3.2-3.2-8.745 8.742L7.2 85 4 88.2l8.742 8.742-.056.058.056.057L4 105.8l3.2 3.2 8.743-8.742L24.687 109l3.2-3.2-8.745-8.743.06-.057-.06-.058z" fill="#fff"/><path d="M19.142 56.942l8.744-8.743-3.2-3.2-8.745 8.742L7.2 45 4 48.2l8.742 8.742-.056.058.056.057L4 65.8 7.2 69l8.743-8.742L24.687 69l3.2-3.2-8.745-8.743.06-.057-.06-.058z" fill="#67737B"/><path d="M19.142 16.942L27.886 8.2l-3.2-3.2-8.745 8.743L7.2 5 4 8.2l8.742 8.742-.056.058.056.057L4 25.8 7.2 29l8.743-8.742L24.687 29l3.2-3.2-8.745-8.743.06-.057-.06-.058z" fill="#3A434E"/></g></svg>
